X: 77
T:Untitled. HA.076
M:3/4
L:1/4
Q:70
S:Henry Atkinson's original MS,Hartburn,N'umberland,1694.
O:England
A:Hartburn,Northumberland
H:1/4
Z:vmp.Chris Partington.Jan.2004
K:C
c2e|g2a|(ge)(d/c/)|a3|
c'ce|f>g (a/f/)|ge(d/c/)|B2G|!
c2e|g2a|(ge)(d/c/)|a3|
c'ce|(d/e/)fd|gAB|c3-|c2:|!
|:g|(c'g)c|f2a|d'ac'|b2(a/g/)|
c'ga|"#"fdB|(Gg)^f|g>a (b/g/)|!
c'ge|e>f (g/d/)|(fe)(d/c/)|B2A/B/)|
gde|fga/b/|c'ge3/4d/4|c3:|]
